desktoptheme/Sweet-HTB/icons/kget.svg

<svg id="svg7384" width="22" height="22" enable-background="new" inkscape:version="0.92.4 (5da689c313, 2019-01-14)" sodipodi:docname="kget.svg" version="1.1" xmlns="http://www.w3.org/2000/svg" xmlns:inkscape="http://www.inkscape.org/namespaces/inkscape" xmlns:osb="http://www.openswatchbook.org/uri/2009/osb" xmlns:sodipodi="http://sodipodi.sourceforge.net/DTD/sodipodi-0.dtd">
 <sodipodi:namedview id="namedview10" bordercolor="#666666" borderopacity="1" gridtolerance="10" guidetolerance="10" inkscape:bbox-nodes="true" inkscape:current-layer="svg7384" inkscape:cx="4.359619" inkscape:cy="14.316089" inkscape:pageopacity="0" inkscape:pageshadow="2" inkscape:snap-bbox="true" inkscape:window-height="714" inkscape:window-maximized="1" inkscape:window-width="1366" inkscape:window-x="0" inkscape:window-y="26" inkscape:zoom="10.727273" objecttolerance="10" pagecolor="#323232" showgrid="true">
  <inkscape:grid id="grid824" type="xygrid"/>
 </sodipodi:namedview>
 <defs id="defs7386">
  <style id="current-color-scheme" type="text/css">.ColorScheme-Text { color:#363636; } .ColorScheme-Highlight { color:#5294e2; } .ColorScheme-ButtonBackground { color:#363636; }</style>
 </defs>
 <g id="kget">
  <path id="path826" d="m11 2a9 9 0 0 0-9 9 9 9 0 0 0 9 9 9 9 0 0 0 9-9 9 9 0 0 0-9-9zm-2 3h4v7h3l-5 6-5-6h3v-7z" fill="#363636"/>
  <path id="rect4139" d="m0.25 0h21.5c0.1385 0 0.25 0.1115 0.25 0.25v21.5c0 0.1385-0.11151 0.25-0.25 0.25h-21.5c-0.1385 0-0.25-0.1115-0.25-0.25v-21.5c0-0.1385 0.11151-0.25 0.25-0.25z" opacity="0" inkscape:connector-curvature="0"/>
  <path id="path5972" class="ColorScheme-Text" d="m9 10v2h-3l5 6 5-6h-3v-2s-1 0.58263-2 0c-1-0.58263-1.4149-0.2447-2 0z" color="#363636" fill="currentColor" opacity=".15" inkscape:connector-curvature="0" sodipodi:nodetypes="ccccccczc"/>
 </g>
</svg>

<?xml version="1.0" encoding="UTF-8" standalone="no"?>
<svg
   xmlns:dc="http://purl.org/dc/elements/1.1/"
   xmlns:cc="http://creativecommons.org/ns#"
   xmlns:rdf="http://www.w3.org/1999/02/22-rdf-syntax-ns#"
   xmlns:svg="http://www.w3.org/2000/svg"
   xmlns="http://www.w3.org/2000/svg"
   xmlns:sodipodi="http://sodipodi.sourceforge.net/DTD/sodipodi-0.dtd"
   xmlns:inkscape="http://www.inkscape.org/namespaces/inkscape"
   id="svg7384"
   width="22"
   height="22"
   enable-background="new"
   inkscape:version="1.0.2 (e86c870879, 2021-01-15)"
   sodipodi:docname="kget.svg"
   version="1.1">
  <metadata
     id="metadata11">
    <rdf:RDF>
      <cc:Work
         rdf:about="">
        <dc:format>image/svg+xml</dc:format>
        <dc:type
           rdf:resource="http://purl.org/dc/dcmitype/StillImage" />
      </cc:Work>
    </rdf:RDF>
  </metadata>
  <sodipodi:namedview
     id="namedview10"
     bordercolor="#666666"
     borderopacity="1"
     gridtolerance="10"
     guidetolerance="10"
     inkscape:bbox-nodes="true"
     inkscape:current-layer="svg7384"
     inkscape:cx="4.359619"
     inkscape:cy="14.316089"
     inkscape:pageopacity="0"
     inkscape:pageshadow="2"
     inkscape:snap-bbox="true"
     inkscape:window-height="714"
     inkscape:window-maximized="1"
     inkscape:window-width="1366"
     inkscape:window-x="0"
     inkscape:window-y="26"
     inkscape:zoom="10.727273"
     objecttolerance="10"
     pagecolor="#323232"
     showgrid="true"
     inkscape:document-rotation="0">
    <inkscape:grid
       id="grid824"
       type="xygrid" />
  </sodipodi:namedview>
  <defs
     id="defs7386">
    <style
       id="current-color-scheme"
       type="text/css">.ColorScheme-Text { color:#363636; } .ColorScheme-Highlight { color:#5294e2; } .ColorScheme-ButtonBackground { color:#363636; }</style>
  </defs>
  <g
     id="kget">
    <path
       id="path826"
       d="m 11,2 a 9,9 0 0 0 -9,9 9,9 0 0 0 9,9 9,9 0 0 0 9,-9 9,9 0 0 0 -9,-9 z M 9,5 h 4 v 7 h 3 l -5,6 -5,-6 h 3 z"
       fill="#a1adc8"
       style="fill-opacity:1" />
    <path
       id="rect4139"
       d="m 0.25,0 h 21.5 C 21.8885,0 22,0.1115 22,0.25 v 21.5 C 22,21.8885 21.88849,22 21.75,22 H 0.25 C 0.1115,22 0,21.8885 0,21.75 V 0.25 C 0,0.1115 0.11151,0 0.25,0 Z"
       opacity="0"
       inkscape:connector-curvature="0" />
    <path
       id="path5972"
       class="ColorScheme-Text"
       d="m 9,10 v 2 H 6 l 5,6 5,-6 h -3 v -2 c 0,0 -1,0.58263 -2,0 C 10,9.41737 9.5851,9.7553 9,10 Z"
       color="#a1adc8"
       fill="currentColor"
       opacity="0.15"
       inkscape:connector-curvature="0"
       sodipodi:nodetypes="ccccccczc" />
  </g>
</svg>
